assets/images/svg/svg-telegram.svg

<svg width="18" height="18" viewBox="0 0 18 18" fill="none" xmlns="http://www.w3.org/2000/svg">
<g clip-path="url(#clip0_1620_22151)">
<path d="M17.61 2.49739C17.4436 2.34856 17.2326 2.25892 17.01 2.24239C16.9254 2.23105 16.8396 2.23105 16.755 2.24239C16.2525 2.33989 15.75 2.48239 15.255 2.61739H15.18L14.73 2.74489C11.16 3.70489 7.23 4.77739 2.67 6.02989L2.325 6.10489C1.665 6.23989 0.765 6.42739 0.75 7.10239C0.75 7.55989 1.2 7.74739 1.5675 7.89739L1.695 7.94989C2.2275 8.18239 2.79 8.41489 3.3375 8.63239C3.915 8.86489 4.5075 9.11239 5.0775 9.38239C5.16 9.90739 5.19 10.4249 5.2275 10.9349C5.26129 11.6064 5.33643 12.2751 5.4525 12.9374C5.4525 12.9974 5.4525 13.0799 5.4525 13.1849C5.52 13.7249 5.58 14.1224 5.775 14.2724C5.90183 14.3709 6.05694 14.4261 6.21749 14.4299V14.4299C6.48575 14.4193 6.74563 14.3335 6.96749 14.1824C7.36499 13.9049 7.7175 13.6199 8.0625 13.3274C8.4075 13.0349 8.6475 12.8474 8.955 12.6299C9.705 13.3274 10.455 14.0249 11.0925 14.6399L11.715 15.2099C11.7586 15.2611 11.8063 15.3087 11.8575 15.3524C12.1346 15.6903 12.5226 15.9188 12.9525 15.9974H13.14C13.755 15.9524 14.0175 15.1499 14.205 14.5574C14.865 12.5099 15.495 10.5749 16.125 8.62489L16.2825 8.14489C16.68 6.89989 17.085 5.65489 17.505 4.39489V4.27489C17.7675 3.68239 18.015 2.93989 17.61 2.49739ZM13.035 15.5699C12.7366 15.4851 12.4735 15.3062 12.285 15.0599L12.1275 14.9099L11.5125 14.3399C10.7625 13.6874 10.0125 12.9449 9.2625 12.2174L9.15 12.1124L7.3875 10.3724L14.6475 4.85989L14.7 4.79989C14.7033 4.78254 14.7033 4.76474 14.7 4.74739C14.7037 4.72233 14.7023 4.69679 14.6958 4.6723C14.6894 4.64781 14.678 4.62488 14.6625 4.60489C14.6384 4.55739 14.5965 4.52131 14.546 4.50446C14.4954 4.48761 14.4403 4.49136 14.3925 4.51489L5.3925 9.01489C4.8 8.75239 4.1775 8.49739 3.5775 8.26489C3.045 8.03989 2.48999 7.81489 1.95749 7.58239L1.7025 7.52989C1.4475 7.42489 1.155 7.30489 1.1625 7.14739C1.1625 6.82489 1.9125 6.66739 2.385 6.56989L2.76 6.48739C7.26 5.25739 11.175 4.17739 14.8125 3.20239L15.345 3.05989C15.8325 2.92489 16.3275 2.78239 16.845 2.69239C16.8872 2.6848 16.9303 2.6848 16.9725 2.69239C17.0895 2.69961 17.2017 2.74136 17.295 2.81239C17.52 3.05239 17.295 3.68239 17.1675 4.13989L15.825 8.26489L13.8225 14.4524C13.7025 14.8424 13.47 15.5699 13.1475 15.5924L13.035 15.5699ZM6.5625 13.9649L7.1325 10.7699L8.73 12.3449C8.445 12.5474 8.1825 12.7649 7.8675 13.0199C7.5525 13.2749 7.1925 13.5824 6.81 13.8449C6.7337 13.9004 6.65051 13.9458 6.5625 13.9799V13.9649ZM12.42 5.96989L6.77999 10.2374L6.12 13.9874C6.0348 13.7274 5.9819 13.4578 5.9625 13.1849C5.9625 13.0724 5.9625 12.9824 5.925 12.9149C5.81388 12.2698 5.74125 11.6186 5.70749 10.9649C5.70749 10.5299 5.64 9.98989 5.565 9.46489L12.42 5.96989Z" fill="white"/>
</g>
<defs>
<clipPath id="clip0_1620_22151">
<rect width="17.0775" height="13.785" fill="white" transform="translate(0.75 2.25)"/>
</clipPath>
</defs>
</svg>

<svg width="18" height="18" fill="none" xmlns="http://www.w3.org/2000/svg">
  <g clip-path="url(#a)">
    <path d="M17.61 2.497a1.013 1.013 0 0 0-.6-.255.96.96 0 0 0-.255 0c-.502.098-1.005.24-1.5.375h-.075l-.45.128c-3.57.96-7.5 2.032-12.06 3.285l-.345.075c-.66.135-1.56.322-1.575.997 0 .458.45.645.817.795l.128.053c.532.232 1.095.465 1.642.682.578.233 1.17.48 1.74.75.083.525.113 1.043.15 1.553.034.671.11 1.34.225 2.002v.248c.068.54.128.937.323 1.087a.75.75 0 0 0 .442.158c.269-.01.529-.096.75-.248.398-.277.75-.562 1.096-.855.345-.292.585-.48.892-.697.75.697 1.5 1.395 2.137 2.01l.623.57c.044.051.091.099.143.142.277.338.665.567 1.095.645h.187c.615-.045.877-.847 1.065-1.44.66-2.047 1.29-3.982 1.92-5.932l.157-.48c.398-1.245.803-2.49 1.223-3.75v-.12c.262-.593.51-1.335.105-1.778ZM13.035 15.57a1.44 1.44 0 0 1-.75-.51l-.158-.15-.615-.57c-.75-.653-1.5-1.395-2.25-2.123l-.112-.105-1.763-1.74 7.26-5.512.053-.06a.14.14 0 0 0 0-.053.186.186 0 0 0-.037-.142.203.203 0 0 0-.27-.09l-9 4.5a42.031 42.031 0 0 0-1.815-.75c-.533-.225-1.088-.45-1.62-.683l-.256-.052c-.254-.105-.547-.225-.54-.383 0-.322.75-.48 1.223-.577l.375-.083c4.5-1.23 8.415-2.31 12.053-3.285l.532-.142c.487-.135.982-.278 1.5-.368a.36.36 0 0 1 .128 0c.117.008.229.05.322.12.225.24 0 .87-.128 1.328l-1.342 4.125-2.002 6.187c-.12.39-.353 1.118-.675 1.14l-.113-.022Zm-6.473-1.605.57-3.195 1.598 1.575c-.285.202-.548.42-.863.675-.314.255-.675.562-1.057.825-.076.055-.16.1-.247.135v-.015ZM12.42 5.97l-5.64 4.267-.66 3.75a3.337 3.337 0 0 1-.157-.802c0-.113 0-.203-.038-.27a16.501 16.501 0 0 1-.218-1.95c0-.435-.067-.975-.142-1.5L12.42 5.97Z" fill="#fff"/>
  </g>
  <defs>
    <clipPath id="a">
      <path fill="#fff" transform="translate(.75 2.25)" d="M0 0h17.078v13.785H0z"/>
    </clipPath>
  </defs>
</svg>
